svgs/murglar.svg

<svg xmlns="http://www.w3.org/2000/svg" viewBox="0 0 192 192"><path d="M113.93 161.561c-8.646-7.942-17.686-16.192-20.086-18.334-3.826-3.413-4.207-4.086-3.079-5.444.899-1.083 2.817-1.55 6.377-1.55h5.092v-23.756l3.288.617c8.056 1.511 18.174-3.987 22.511-12.231 1.711-3.253 2.126-5.902 2.432-15.521l.368-11.599h13.916c9.561 0 14.271.356 15.052 1.136.836.836 1.136 9.09 1.136 31.246v30.108h4.656c5.491 0 7.652.681 7.652 2.409 0 .692-8.827 9.381-19.616 19.308C140.01 170.482 133.347 176 131.833 176c-1.494 0-7.134-4.549-17.903-14.439ZM29.329 118.13c-3.025-1.203-7.362-5.31-9.08-8.597-2.174-4.162-1.701-11.803 1.018-16.442 2.718-4.638 8.605-7.986 14.041-7.986h3.489V56.881c0-21.766.283-28.611 1.239-29.919 1.043-1.426 7.171-2.429 38.583-6.315 43.066-5.329 44.909-5.437 46.355-2.736.706 1.32.939 13.866.743 40.003-.315 41.981-.209 41.212-6.449 46.463-7.645 6.433-18.774 4.916-24.934-3.4-2.909-3.928-3.267-12.58-.725-17.562 2.527-4.955 8.643-8.725 14.152-8.725h3.941V37.728l-2.13.472c-1.172.26-13.635 1.979-27.695 3.82-14.06 1.842-26.523 3.563-27.694 3.825l-2.131.476v30.328c0 32.863-.008 32.921-5.359 37.984-4.606 4.357-11.638 5.773-17.364 3.497Z"/></svg>

<svg
    xmlns="http://www.w3.org/2000/svg"
    viewBox="0 0 192 192"
    id="vector">
    <path
        id="path"
        d="M 113.93 161.561 C 105.284 153.619 96.244 145.369 93.844 143.227 C 90.018 139.814 89.637 139.141 90.765 137.783 C 91.664 136.7 93.582 136.233 97.142 136.233 L 102.234 136.233 L 102.234 112.477 L 105.522 113.094 C 113.578 114.605 123.696 109.107 128.033 100.863 C 129.744 97.61 130.159 94.961 130.465 85.342 L 130.833 73.743 L 144.749 73.743 C 154.31 73.743 159.02 74.099 159.801 74.879 C 160.637 75.715 160.937 83.969 160.937 106.125 L 160.937 136.233 L 165.593 136.233 C 171.084 136.233 173.245 136.914 173.245 138.642 C 173.245 139.334 164.418 148.023 153.629 157.95 C 140.01 170.482 133.347 176 131.833 176 C 130.339 176 124.699 171.451 113.93 161.561 Z M 29.329 118.13 C 26.304 116.927 21.967 112.82 20.249 109.533 C 18.075 105.371 18.548 97.73 21.267 93.091 C 23.985 88.453 29.872 85.105 35.308 85.105 L 38.797 85.105 L 38.797 56.881 C 38.797 35.115 39.08 28.27 40.036 26.962 C 41.079 25.536 47.207 24.533 78.619 20.647 C 121.685 15.318 123.528 15.21 124.974 17.911 C 125.68 19.231 125.913 31.777 125.717 57.914 C 125.402 99.895 125.508 99.126 119.268 104.377 C 111.623 110.81 100.494 109.293 94.334 100.977 C 91.425 97.049 91.067 88.397 93.609 83.415 C 96.136 78.46 102.252 74.69 107.761 74.69 L 111.702 74.69 L 111.702 37.728 L 109.572 38.2 C 108.4 38.46 95.937 40.179 81.877 42.02 C 67.817 43.862 55.354 45.583 54.183 45.845 L 52.052 46.321 L 52.052 76.649 C 52.052 109.512 52.044 109.57 46.693 114.633 C 42.087 118.99 35.055 120.406 29.329 118.13 Z"
        fill="#000000"
        stroke-width="12"/>
</svg>
